svg/wapy-dev.svg

<svg xmlns="http://www.w3.org/2000/svg" xml:space="preserve" viewBox="0 0 512 512"><path d="M244.9 51.9C98.7 59.4 7.2 216.5 72.8 347.5c72.2 144.2 275.6 152 358.6 13.8 84-140-23.1-317.7-186.5-309.4m3.7 51.1c-128.2 7.8-192.1 156.3-109 253.3 74.8 87.3 216.1 63.6 259-43.5 41.1-102.6-40.3-216.5-150-209.8" style="fill-rule:evenodd;clip-rule:evenodd;fill:#ac6433"/><path d="M241.6.8C44.7 11.8-66.3 233.8 43 398c112.5 168.9 368.8 145 448.4-41.7 74-173.7-61.1-366-249.8-355.5m3.3 51.1C98.7 59.4 7.2 216.5 72.8 347.5c72.2 144.2 275.6 152 358.6 13.8 84-140-23.1-317.7-186.5-309.4m3.7 51.1c-128.2 7.8-192.1 156.3-109 253.3 74.8 87.3 216.1 63.6 259-43.5 41.1-102.6-40.3-216.5-150-209.8" style="fill-rule:evenodd;clip-rule:evenodd;fill:#f7b61b"/><path d="M398.5 312.9c4.2-10.5 7.1-21.1 8.9-31.7L231.3 105.1c-63 10.5-107.8 56-123.3 110.2L296.7 404c43.8-12 82.7-43.2 101.8-91.1m90.2 49.6-39.3-39.3c-4.6 13-10.5 25.8-18.1 38.3-23.6 39.4-57 66.9-94.4 82.8l38.3 38.3c47.7-24.8 88.4-65.1 113.5-120.1M29.9 137.2l38.3 38.3C90.6 124 133.5 81.9 189 62.8l-39.5-39.5c-52.4 24-93.8 64.9-119.6 113.9" style="fill:#fac620"/></svg>

<?xml version="1.0" encoding="utf-8"?>
<!-- Generator: Adobe Illustrator 28.2.0, SVG Export Plug-In . SVG Version: 6.00 Build 0)  -->
<svg version="1.1" id="Layer_1" xmlns="http://www.w3.org/2000/svg" xmlns:xlink="http://www.w3.org/1999/xlink" x="0px" y="0px"
	 viewBox="0 0 512 512" style="enable-background:new 0 0 512 512;" xml:space="preserve">
<style type="text/css">
	.st0{fill-rule:evenodd;clip-rule:evenodd;fill:#AC6433;}
	.st1{fill-rule:evenodd;clip-rule:evenodd;fill:#F7B61B;}
	.st2{fill:#FAC620;}
</style>
<path class="st0" d="M244.9,51.9C98.7,59.4,7.2,216.5,72.8,347.5c72.2,144.2,275.6,152,358.6,13.8
	C515.4,221.3,408.3,43.6,244.9,51.9 M248.6,103c-128.2,7.8-192.1,156.3-109,253.3c74.8,87.3,216.1,63.6,259-43.5
	C439.7,210.2,358.3,96.3,248.6,103"/>
<path class="st1" d="M241.6,0.8C44.7,11.8-66.3,233.8,43,398c112.5,168.9,368.8,145,448.4-41.7C565.4,182.6,430.3-9.7,241.6,0.8
	 M244.9,51.9C98.7,59.4,7.2,216.5,72.8,347.5c72.2,144.2,275.6,152,358.6,13.8C515.4,221.3,408.3,43.6,244.9,51.9 M248.6,103
	c-128.2,7.8-192.1,156.3-109,253.3c74.8,87.3,216.1,63.6,259-43.5C439.7,210.2,358.3,96.3,248.6,103"/>
<path class="st2" d="M398.5,312.9c4.2-10.5,7.1-21.1,8.9-31.7L231.3,105.1c-63,10.5-107.8,56-123.3,110.2L296.7,404
	C340.5,392,379.4,360.8,398.5,312.9z M488.7,362.5l-39.3-39.3c-4.6,13-10.5,25.8-18.1,38.3c-23.6,39.4-57,66.9-94.4,82.8l38.3,38.3
	C422.9,457.8,463.6,417.5,488.7,362.5z M29.9,137.2l38.3,38.3C90.6,124,133.5,81.9,189,62.8l-39.5-39.5
	C97.1,47.3,55.7,88.2,29.9,137.2z"/>
</svg>
